X: 5
T: The Sweetness Of Mary
R: strathspey
M: 4/4
L: 1/8
K: Gmaj
(3DGA|B2 (3BAG E2 (3EGA|B<d c<e d2 (3def|g>fe>d d>cB>c|d<g B<G A2 (3AGA|
B2 (3BAG E2 (3EGA|B<d c<e d2 (3def|g>fe>d d>cB>c|d<g B<A G2:|
g>a|b>dg<b a>df<a|g>fe<g d2 c<B|e>dc<e d>cB>c|d<g B<G A2 g>a|
b>dg<b a>df<a|g>fe<g d2 c<B|e>Gc<e d>cB>c|d<g B<A G2:|


Tune 802	Setting 13952

